X:42
T:Oyster Cove
S:Bernie Waugh
R:Reel
M:4/4
L:1/8
K:D Dorian
|:\
"F"ABAG "G"EGAB|"Am"c2c2 BGG2|"F"ABAG "Em"EDEG|"D"Ad2c d2cB|
"F"ABAG "G"EGAB|"Am"c2c2 BGG2|"F"ABAG "Em"EDEG|"D"Ad2c d3d:|
|:\
"Am"cdef "Bm"gagf|"C"ecgc ecgc|cdef "Em"gage|"Bm"fdad fdad|
"Am"cdef "Bm"gagf|"C"ecgc ecgc|"Bm"afge "C"fdec|"D"Ad2c d4:|


